Newaita-dark/apps/22/messengerfordesktop.svg

<svg height="22" viewBox="0 0 22 22" width="22" xmlns="http://www.w3.org/2000/svg" xmlns:xlink="http://www.w3.org/1999/xlink"><linearGradient id="a"><stop offset="0" stop-opacity=".313726"/><stop offset=".222222" stop-opacity=".27451"/><stop offset="1" stop-opacity="0"/></linearGradient><radialGradient id="b" cx="450.908936" cy="189.579361" gradientTransform="matrix(.00000012 -.0537161 -.0966889 -.00000007 29.472677 43.721789)" gradientUnits="userSpaceOnUse" r="21.166656" xlink:href="#a"/><radialGradient id="c" cx="450.908936" cy="189.579361" gradientTransform="matrix(-.00000012 .0537161 .0966889 .00000007 -14.464406 -5.175144)" gradientUnits="userSpaceOnUse" r="21.166656" xlink:href="#a"/><radialGradient id="d" cx="450.908936" cy="189.579361" gradientTransform="matrix(-.00000012 -.0537161 .0966889 -.00000007 -14.464406 43.721789)" gradientUnits="userSpaceOnUse" r="21.166656" xlink:href="#a"/><radialGradient id="e" cx="450.908936" cy="189.579361" gradientTransform="matrix(.00000012 .0537161 -.0966889 .00000007 29.472675 -5.175144)" gradientUnits="userSpaceOnUse" r="21.166656" xlink:href="#a"/><linearGradient id="f" gradientTransform="matrix(.0223065 0 0 .0429729 1.808765 9.239164)" gradientUnits="userSpaceOnUse" x1="255.323059" x2="255.323044" y1="233.5" y2="254.666656"><stop offset="0" stop-opacity=".27451"/><stop offset="1" stop-opacity="0"/></linearGradient><linearGradient id="g"><stop offset="0" stop-color="#82b1ff"/><stop offset="1" stop-color="#448aff"/></linearGradient><linearGradient id="h" gradientUnits="userSpaceOnUse" x1="126.656886" x2="126.656886" xlink:href="#g" y1="148.833328" y2="233.5"/><linearGradient id="i" gradientUnits="userSpaceOnUse" x1="254" x2="254" xlink:href="#g" y1="-168.666672" y2="233.5"/><linearGradient id="j"><stop offset="0" stop-color="#e0e0e0"/><stop offset="1" stop-color="#f5f5f5"/></linearGradient><linearGradient id="k" gradientTransform="matrix(.0429729 0 0 -.0429729 0 12.025237)" gradientUnits="userSpaceOnUse" x1="254" x2="254" xlink:href="#j" y1=".666667" y2="64.166664"/><linearGradient id="l" gradientTransform="matrix(.0429729 0 0 -.0429729 4.093164 12.025237)" gradientUnits="userSpaceOnUse" x1="254" x2="254" xlink:href="#j" y1=".666667" y2="64.166664"/><linearGradient id="m" gradientTransform="matrix(.0429729 0 0 -.0429729 -4.093164 12.025237)" gradientUnits="userSpaceOnUse" x1="254" x2="254" xlink:href="#j" y1=".666667" y2="64.166664"/><path d="m11.371094 19.273438h1.816406v-.910157h-1.816406zm0 0" fill="url(#b)"/><path d="m3.636719 19.273438h-1.816407v.910156h1.816407zm0 0" fill="url(#c)"/><path d="m3.636719 19.273438h-1.816407v-.910157h1.816407zm0 0" fill="url(#d)"/><path d="m11.371094 19.273438h1.816406v.910156h-1.816406zm0 0" fill="url(#e)"/><path d="m3.636719 19.046875h7.734375v1.136719h-7.734375zm0 0" fill="url(#f)"/><path d="m126.987873 148.874343c-2.636112-.090901-5.181323.818103-7.181132 2.545211l-74.083835 63.448487c-7.453833 6.453929-2.999713 18.634584 6.817531 18.634584h211.707056c11.362551 0 14.725866-15.45307 4.45412-20.179891l-137.623221-63.539387c-1.272606-.545403-2.636112-.909004-4.090519-.909004zm0 0" style="fill-rule:evenodd;stroke-width:3;stroke-linecap:round;stroke-linejoin:round;stroke:#212121;fill:url(#h)" transform="matrix(.0429729 0 0 .0429729 0 9.239163)"/><path d="m253.975747-168.640791c111.080301 0 201.071707 89.991407 201.071707 201.071708s-89.991406 201.071708-201.071707 201.071708c-110.989402 0-201.071708-89.991407-201.071708-201.071708s90.082306-201.071708 201.071708-201.071708zm0 0" fill="url(#i)" stroke="#333" stroke-linecap="round" stroke-width="3" transform="matrix(.0429729 0 0 .0429729 0 9.239163)"/><path d="m10.914062 19.273438c-4.785156 0-8.640624-3.855469-8.640624-8.640626 0-.027343 0-.058593 0-.085937.046874 4.75 3.882812 8.558594 8.640624 8.558594 4.761719 0 8.597657-3.808594 8.640626-8.558594v.085937c0 4.785157-3.851563 8.640626-8.640626 8.640626zm0 0" fill-opacity=".196078"/><path d="m10.914062 1.992188c-4.785156 0-8.640624 3.851562-8.640624 8.640624v.085938c.046874-4.75 3.882812-8.558594 8.640624-8.558594 4.761719 0 8.597657 3.808594 8.640626 8.558594 0-.03125 0-.058594 0-.085938 0-4.789062-3.851563-8.640624-8.640626-8.640624zm0 0" fill="#fff" fill-opacity=".392157"/><path d="m10.914062 1.925781c-4.820312 0-8.703124 3.882813-8.703124 8.707031 0 4.820313 3.882812 8.703126 8.703124 8.703126 4.824219 0 8.707032-3.882813 8.707032-8.703126 0-4.824218-3.882813-8.707031-8.707032-8.707031zm0 .128907c4.753907 0 8.578126 3.824218 8.578126 8.578124 0 4.75-3.824219 8.574219-8.578126 8.574219-4.75 0-8.574218-3.824219-8.574218-8.574219 0-4.753906 3.824218-8.578124 8.574218-8.578124zm0 0" fill="#212121"/><path d="m10.914062 11.996094c.753907 0 1.367188-.609375 1.367188-1.363282 0-.753906-.613281-1.363281-1.367188-1.363281-.753906 0-1.363281.609375-1.363281 1.363281 0 .753907.609375 1.363282 1.363281 1.363282zm0 0" fill="url(#k)"/><path d="m15.007812 11.996094c.753907 0 1.363282-.609375 1.363282-1.363282 0-.753906-.609375-1.363281-1.363282-1.363281-.753906 0-1.363281.609375-1.363281 1.363281 0 .753907.609375 1.363282 1.363281 1.363282zm0 0" fill="url(#l)"/><path d="m6.820312 11.996094c.753907 0 1.367188-.609375 1.367188-1.363282 0-.753906-.613281-1.363281-1.367188-1.363281-.75 0-1.363281.609375-1.363281 1.363281 0 .753907.613281 1.363282 1.363281 1.363282zm0 0" fill="url(#m)"/><path d="m10.914062 9.269531c-.753906 0-1.363281.605469-1.363281 1.363281 0 .058594.003907.113282.011719.171876.082031-.675782.65625-1.195313 1.351562-1.195313.699219 0 1.273438.519531 1.355469 1.195313.007813-.058594.011719-.113282.011719-.171876 0-.757812-.609375-1.363281-1.367188-1.363281zm0 0" fill="#fcfcfc"/><path d="m15.007812 9.269531c-.753906 0-1.363281.605469-1.363281 1.363281 0 .058594.003907.113282.011719.171876.082031-.675782.652344-1.195313 1.351562-1.195313.699219 0 1.269532.519531 1.355469 1.195313.003907-.058594.007813-.113282.007813-.171876 0-.757812-.605469-1.363281-1.363282-1.363281zm0 0" fill="#fcfcfc"/><path d="m6.820312 9.269531c-.753906 0-1.363281.605469-1.363281 1.363281 0 .058594.003907.113282.011719.171876.082031-.675782.65625-1.195313 1.351562-1.195313.699219 0 1.273438.519531 1.355469 1.195313.007813-.058594.011719-.113282.011719-.171876 0-.757812-.609375-1.363281-1.367188-1.363281zm0 0" fill="#fcfcfc"/><path d="m9.570312 10.859375c-.011718.074219-.019531.148437-.019531.226563 0 .757812.609375 1.367187 1.363281 1.367187.757813 0 1.367188-.609375 1.367188-1.367187 0-.078126-.007812-.152344-.019531-.226563-.109375.648437-.667969 1.136719-1.347657 1.136719-.675781 0-1.238281-.488282-1.34375-1.136719zm0 0" fill-opacity=".235294"/><path d="m13.664062 10.859375c-.015624.074219-.019531.148437-.019531.226563 0 .757812.609375 1.367187 1.363281 1.367187.757813 0 1.363282-.609375 1.363282-1.367187 0-.078126-.003906-.152344-.015625-.226563-.109375.648437-.667969 1.136719-1.347657 1.136719-.679687 0-1.238281-.488282-1.34375-1.136719zm0 0" fill-opacity=".235294"/><path d="m5.476562 10.859375c-.011718.074219-.019531.148437-.019531.226563 0 .757812.609375 1.367187 1.363281 1.367187.757813 0 1.367188-.609375 1.367188-1.367187 0-.078126-.007812-.152344-.019531-.226563-.109375.648437-.667969 1.136719-1.347657 1.136719-.675781 0-1.234374-.488282-1.34375-1.136719zm0 0" fill-opacity=".235294"/><g stroke="#212121" stroke-linecap="round" stroke-linejoin="round" stroke-width="3"><path d="m253.975747-64.15516c17.543779 0 31.815143 14.180464 31.815143 31.724243s-14.271364 31.724243-31.815143 31.724243c-17.54378 0-31.724244-14.180464-31.724244-31.724243s14.180464-31.724243 31.724244-31.724243zm0 0" fill="none" transform="matrix(.0429729 0 0 -.0429729 0 9.239163)"/><path d="m349.239377-64.15516c17.543779 0 31.724243 14.180464 31.724243 31.724243s-14.180464 31.724243-31.724243 31.724243c-17.54378 0-31.724244-14.180464-31.724244-31.724243s14.180464-31.724243 31.724244-31.724243zm0 0" fill="none" transform="matrix(.0429729 0 0 -.0429729 0 9.239163)"/><path d="m158.712116-64.15516c17.54378 0 31.815144 14.180464 31.815144 31.724243s-14.271364 31.724243-31.815144 31.724243c-17.452878 0-31.724243-14.180464-31.724243-31.724243s14.271365-31.724243 31.724243-31.724243zm0 0" fill="none" transform="matrix(.0429729 0 0 -.0429729 0 9.239163)"/></g></svg>

<?xml version="1.0" encoding="UTF-8"?>
<svg xmlns="http://www.w3.org/2000/svg" xmlns:xlink="http://www.w3.org/1999/xlink" width="22px" height="22px" viewBox="0 0 22 22" version="1.1">
<defs>
<radialGradient id="radial0" gradientUnits="userSpaceOnUse" cx="450.908936" cy="189.579361" fx="450.908936" fy="189.579361" r="21.166656" gradientTransform="matrix(0.000000119742,-0.0537161,-0.0966889,-0.0000000698078,29.472677,43.721789)">
<stop offset="0" style="stop-color:rgb(0%,0%,0%);stop-opacity:0.313726;"/>
<stop offset="0.222222" style="stop-color:rgb(0%,0%,0%);stop-opacity:0.27451;"/>
<stop offset="1" style="stop-color:rgb(0%,0%,0%);stop-opacity:0;"/>
</radialGradient>
<radialGradient id="radial1" gradientUnits="userSpaceOnUse" cx="450.908936" cy="189.579361" fx="450.908936" fy="189.579361" r="21.166656" gradientTransform="matrix(-0.000000119742,0.0537161,0.0966889,0.0000000698078,-14.464406,-5.175144)">
<stop offset="0" style="stop-color:rgb(0%,0%,0%);stop-opacity:0.313726;"/>
<stop offset="0.222222" style="stop-color:rgb(0%,0%,0%);stop-opacity:0.27451;"/>
<stop offset="1" style="stop-color:rgb(0%,0%,0%);stop-opacity:0;"/>
</radialGradient>
<radialGradient id="radial2" gradientUnits="userSpaceOnUse" cx="450.908936" cy="189.579361" fx="450.908936" fy="189.579361" r="21.166656" gradientTransform="matrix(-0.000000119742,-0.0537161,0.0966889,-0.0000000698078,-14.464406,43.721789)">
<stop offset="0" style="stop-color:rgb(0%,0%,0%);stop-opacity:0.313726;"/>
<stop offset="0.222222" style="stop-color:rgb(0%,0%,0%);stop-opacity:0.27451;"/>
<stop offset="1" style="stop-color:rgb(0%,0%,0%);stop-opacity:0;"/>
</radialGradient>
<radialGradient id="radial3" gradientUnits="userSpaceOnUse" cx="450.908936" cy="189.579361" fx="450.908936" fy="189.579361" r="21.166656" gradientTransform="matrix(0.000000119742,0.0537161,-0.0966889,0.0000000698078,29.472675,-5.175144)">
<stop offset="0" style="stop-color:rgb(0%,0%,0%);stop-opacity:0.313726;"/>
<stop offset="0.222222" style="stop-color:rgb(0%,0%,0%);stop-opacity:0.27451;"/>
<stop offset="1" style="stop-color:rgb(0%,0%,0%);stop-opacity:0;"/>
</radialGradient>
<linearGradient id="linear0" gradientUnits="userSpaceOnUse" x1="255.323059" y1="233.5" x2="255.323044" y2="254.666656" gradientTransform="matrix(0.0223065,0,0,0.0429729,1.808765,9.239164)">
<stop offset="0" style="stop-color:rgb(0%,0%,0%);stop-opacity:0.27451;"/>
<stop offset="1" style="stop-color:rgb(0%,0%,0%);stop-opacity:0;"/>
</linearGradient>
<linearGradient id="linear1" gradientUnits="userSpaceOnUse" x1="116.416656" y1="148.833328" x2="116.416656" y2="233.5" gradientTransform="matrix(1,0,0,1,10.24023,0)">
<stop offset="0" style="stop-color:rgb(50.980395%,69.411767%,100%);stop-opacity:1;"/>
<stop offset="1" style="stop-color:rgb(26.666668%,54.11765%,100%);stop-opacity:1;"/>
</linearGradient>
<linearGradient id="linear2" gradientUnits="userSpaceOnUse" x1="254" y1="-168.666672" x2="254" y2="233.5" >
<stop offset="0" style="stop-color:rgb(50.980395%,69.411767%,100%);stop-opacity:1;"/>
<stop offset="1" style="stop-color:rgb(26.666668%,54.11765%,100%);stop-opacity:1;"/>
</linearGradient>
<linearGradient id="linear3" gradientUnits="userSpaceOnUse" x1="254" y1="0.666667" x2="254" y2="64.166664" gradientTransform="matrix(0.0429729,0,0,-0.0429729,0,12.025237)">
<stop offset="0" style="stop-color:rgb(87.843138%,87.843138%,87.843138%);stop-opacity:1;"/>
<stop offset="1" style="stop-color:rgb(96.078432%,96.078432%,96.078432%);stop-opacity:1;"/>
</linearGradient>
<linearGradient id="linear4" gradientUnits="userSpaceOnUse" x1="254" y1="0.666667" x2="254" y2="64.166664" gradientTransform="matrix(0.0429729,0,0,-0.0429729,4.093164,12.025237)">
<stop offset="0" style="stop-color:rgb(87.843138%,87.843138%,87.843138%);stop-opacity:1;"/>
<stop offset="1" style="stop-color:rgb(96.078432%,96.078432%,96.078432%);stop-opacity:1;"/>
</linearGradient>
<linearGradient id="linear5" gradientUnits="userSpaceOnUse" x1="254" y1="0.666667" x2="254" y2="64.166664" gradientTransform="matrix(0.0429729,0,0,-0.0429729,-4.093164,12.025237)">
<stop offset="0" style="stop-color:rgb(87.843138%,87.843138%,87.843138%);stop-opacity:1;"/>
<stop offset="1" style="stop-color:rgb(96.078432%,96.078432%,96.078432%);stop-opacity:1;"/>
</linearGradient>
</defs>
<g id="surface1">
<path style=" stroke:none;fill-rule:nonzero;fill:url(#radial0);" d="M 11.371094 19.273438 L 13.1875 19.273438 L 13.1875 18.363281 L 11.371094 18.363281 Z M 11.371094 19.273438 "/>
<path style=" stroke:none;fill-rule:nonzero;fill:url(#radial1);" d="M 3.636719 19.273438 L 1.820312 19.273438 L 1.820312 20.183594 L 3.636719 20.183594 Z M 3.636719 19.273438 "/>
<path style=" stroke:none;fill-rule:nonzero;fill:url(#radial2);" d="M 3.636719 19.273438 L 1.820312 19.273438 L 1.820312 18.363281 L 3.636719 18.363281 Z M 3.636719 19.273438 "/>
<path style=" stroke:none;fill-rule:nonzero;fill:url(#radial3);" d="M 11.371094 19.273438 L 13.1875 19.273438 L 13.1875 20.183594 L 11.371094 20.183594 Z M 11.371094 19.273438 "/>
<path style=" stroke:none;fill-rule:nonzero;fill:url(#linear0);" d="M 3.636719 19.046875 L 11.371094 19.046875 L 11.371094 20.183594 L 3.636719 20.183594 Z M 3.636719 19.046875 "/>
<path style="fill-rule:evenodd;fill:url(#linear1);stroke-width:3;stroke-linecap:round;stroke-linejoin:round;stroke:rgb(12.941177%,12.941177%,12.941177%);stroke-opacity:1;stroke-miterlimit:4;" d="M 126.987873 148.874343 C 124.351761 148.783442 121.80655 149.692446 119.806741 151.419554 L 45.722906 214.868041 C 38.269073 221.32197 42.723193 233.502625 52.540437 233.502625 L 264.247493 233.502625 C 275.610044 233.502625 278.973359 218.049555 268.701613 213.322734 L 131.078392 149.783347 C 129.805786 149.237944 128.44228 148.874343 126.987873 148.874343 Z M 126.987873 148.874343 " transform="matrix(0.0429729,0,0,0.0429729,0,9.239163)"/>
<path style="fill-rule:nonzero;fill:url(#linear2);stroke-width:3;stroke-linecap:round;stroke-linejoin:miter;stroke:rgb(20%,20%,20%);stroke-opacity:1;stroke-miterlimit:4;" d="M 253.975747 -168.640791 C 365.056048 -168.640791 455.047454 -78.649384 455.047454 32.430917 C 455.047454 143.511218 365.056048 233.502625 253.975747 233.502625 C 142.986345 233.502625 52.904039 143.511218 52.904039 32.430917 C 52.904039 -78.649384 142.986345 -168.640791 253.975747 -168.640791 Z M 253.975747 -168.640791 " transform="matrix(0.0429729,0,0,0.0429729,0,9.239163)"/>
<path style=" stroke:none;fill-rule:nonzero;fill:rgb(0%,0%,0%);fill-opacity:0.196078;" d="M 10.914062 19.273438 C 6.128906 19.273438 2.273438 15.417969 2.273438 10.632812 C 2.273438 10.605469 2.273438 10.574219 2.273438 10.546875 C 2.320312 15.296875 6.15625 19.105469 10.914062 19.105469 C 15.675781 19.105469 19.511719 15.296875 19.554688 10.546875 C 19.554688 10.574219 19.554688 10.605469 19.554688 10.632812 C 19.554688 15.417969 15.703125 19.273438 10.914062 19.273438 Z M 10.914062 19.273438 "/>
<path style=" stroke:none;fill-rule:nonzero;fill:rgb(100%,100%,100%);fill-opacity:0.392157;" d="M 10.914062 1.992188 C 6.128906 1.992188 2.273438 5.84375 2.273438 10.632812 C 2.273438 10.660156 2.273438 10.6875 2.273438 10.71875 C 2.320312 5.96875 6.15625 2.160156 10.914062 2.160156 C 15.675781 2.160156 19.511719 5.96875 19.554688 10.71875 C 19.554688 10.6875 19.554688 10.660156 19.554688 10.632812 C 19.554688 5.84375 15.703125 1.992188 10.914062 1.992188 Z M 10.914062 1.992188 "/>
<path style=" stroke:none;fill-rule:nonzero;fill:rgb(12.941177%,12.941177%,12.941177%);fill-opacity:1;" d="M 10.914062 1.925781 C 6.09375 1.925781 2.210938 5.808594 2.210938 10.632812 C 2.210938 15.453125 6.09375 19.335938 10.914062 19.335938 C 15.738281 19.335938 19.621094 15.453125 19.621094 10.632812 C 19.621094 5.808594 15.738281 1.925781 10.914062 1.925781 Z M 10.914062 2.054688 C 15.667969 2.054688 19.492188 5.878906 19.492188 10.632812 C 19.492188 15.382812 15.667969 19.207031 10.914062 19.207031 C 6.164062 19.207031 2.339844 15.382812 2.339844 10.632812 C 2.339844 5.878906 6.164062 2.054688 10.914062 2.054688 Z M 10.914062 2.054688 "/>
<path style=" stroke:none;fill-rule:nonzero;fill:url(#linear3);" d="M 10.914062 11.996094 C 11.667969 11.996094 12.28125 11.386719 12.28125 10.632812 C 12.28125 9.878906 11.667969 9.269531 10.914062 9.269531 C 10.160156 9.269531 9.550781 9.878906 9.550781 10.632812 C 9.550781 11.386719 10.160156 11.996094 10.914062 11.996094 Z M 10.914062 11.996094 "/>
<path style=" stroke:none;fill-rule:nonzero;fill:url(#linear4);" d="M 15.007812 11.996094 C 15.761719 11.996094 16.371094 11.386719 16.371094 10.632812 C 16.371094 9.878906 15.761719 9.269531 15.007812 9.269531 C 14.253906 9.269531 13.644531 9.878906 13.644531 10.632812 C 13.644531 11.386719 14.253906 11.996094 15.007812 11.996094 Z M 15.007812 11.996094 "/>
<path style=" stroke:none;fill-rule:nonzero;fill:url(#linear5);" d="M 6.820312 11.996094 C 7.574219 11.996094 8.1875 11.386719 8.1875 10.632812 C 8.1875 9.878906 7.574219 9.269531 6.820312 9.269531 C 6.070312 9.269531 5.457031 9.878906 5.457031 10.632812 C 5.457031 11.386719 6.070312 11.996094 6.820312 11.996094 Z M 6.820312 11.996094 "/>
<path style=" stroke:none;fill-rule:nonzero;fill:rgb(98.823529%,98.823529%,98.823529%);fill-opacity:1;" d="M 10.914062 9.269531 C 10.160156 9.269531 9.550781 9.875 9.550781 10.632812 C 9.550781 10.691406 9.554688 10.746094 9.5625 10.804688 C 9.644531 10.128906 10.21875 9.609375 10.914062 9.609375 C 11.613281 9.609375 12.1875 10.128906 12.269531 10.804688 C 12.277344 10.746094 12.28125 10.691406 12.28125 10.632812 C 12.28125 9.875 11.671875 9.269531 10.914062 9.269531 Z M 10.914062 9.269531 "/>
<path style=" stroke:none;fill-rule:nonzero;fill:rgb(98.823529%,98.823529%,98.823529%);fill-opacity:1;" d="M 15.007812 9.269531 C 14.253906 9.269531 13.644531 9.875 13.644531 10.632812 C 13.644531 10.691406 13.648438 10.746094 13.65625 10.804688 C 13.738281 10.128906 14.308594 9.609375 15.007812 9.609375 C 15.707031 9.609375 16.277344 10.128906 16.363281 10.804688 C 16.367188 10.746094 16.371094 10.691406 16.371094 10.632812 C 16.371094 9.875 15.765625 9.269531 15.007812 9.269531 Z M 15.007812 9.269531 "/>
<path style=" stroke:none;fill-rule:nonzero;fill:rgb(98.823529%,98.823529%,98.823529%);fill-opacity:1;" d="M 6.820312 9.269531 C 6.066406 9.269531 5.457031 9.875 5.457031 10.632812 C 5.457031 10.691406 5.460938 10.746094 5.46875 10.804688 C 5.550781 10.128906 6.125 9.609375 6.820312 9.609375 C 7.519531 9.609375 8.09375 10.128906 8.175781 10.804688 C 8.183594 10.746094 8.1875 10.691406 8.1875 10.632812 C 8.1875 9.875 7.578125 9.269531 6.820312 9.269531 Z M 6.820312 9.269531 "/>
<path style=" stroke:none;fill-rule:nonzero;fill:rgb(0%,0%,0%);fill-opacity:0.235294;" d="M 9.570312 10.859375 C 9.558594 10.933594 9.550781 11.007812 9.550781 11.085938 C 9.550781 11.84375 10.160156 12.453125 10.914062 12.453125 C 11.671875 12.453125 12.28125 11.84375 12.28125 11.085938 C 12.28125 11.007812 12.273438 10.933594 12.261719 10.859375 C 12.152344 11.507812 11.59375 11.996094 10.914062 11.996094 C 10.238281 11.996094 9.675781 11.507812 9.570312 10.859375 Z M 9.570312 10.859375 "/>
<path style=" stroke:none;fill-rule:nonzero;fill:rgb(0%,0%,0%);fill-opacity:0.235294;" d="M 13.664062 10.859375 C 13.648438 10.933594 13.644531 11.007812 13.644531 11.085938 C 13.644531 11.84375 14.253906 12.453125 15.007812 12.453125 C 15.765625 12.453125 16.371094 11.84375 16.371094 11.085938 C 16.371094 11.007812 16.367188 10.933594 16.355469 10.859375 C 16.246094 11.507812 15.6875 11.996094 15.007812 11.996094 C 14.328125 11.996094 13.769531 11.507812 13.664062 10.859375 Z M 13.664062 10.859375 "/>
<path style=" stroke:none;fill-rule:nonzero;fill:rgb(0%,0%,0%);fill-opacity:0.235294;" d="M 5.476562 10.859375 C 5.464844 10.933594 5.457031 11.007812 5.457031 11.085938 C 5.457031 11.84375 6.066406 12.453125 6.820312 12.453125 C 7.578125 12.453125 8.1875 11.84375 8.1875 11.085938 C 8.1875 11.007812 8.179688 10.933594 8.167969 10.859375 C 8.058594 11.507812 7.5 11.996094 6.820312 11.996094 C 6.144531 11.996094 5.585938 11.507812 5.476562 10.859375 Z M 5.476562 10.859375 "/>
<path style="fill:none;stroke-width:3;stroke-linecap:round;stroke-linejoin:round;stroke:rgb(12.941177%,12.941177%,12.941177%);stroke-opacity:1;stroke-miterlimit:4;" d="M 253.975747 -64.15516 C 271.519526 -64.15516 285.79089 -49.974696 285.79089 -32.430917 C 285.79089 -14.887138 271.519526 -0.706674 253.975747 -0.706674 C 236.431967 -0.706674 222.251503 -14.887138 222.251503 -32.430917 C 222.251503 -49.974696 236.431967 -64.15516 253.975747 -64.15516 Z M 253.975747 -64.15516 " transform="matrix(0.0429729,0,0,-0.0429729,0,9.239163)"/>
<path style="fill:none;stroke-width:3;stroke-linecap:round;stroke-linejoin:round;stroke:rgb(12.941177%,12.941177%,12.941177%);stroke-opacity:1;stroke-miterlimit:4;" d="M 349.239377 -64.15516 C 366.783156 -64.15516 380.96362 -49.974696 380.96362 -32.430917 C 380.96362 -14.887138 366.783156 -0.706674 349.239377 -0.706674 C 331.695597 -0.706674 317.515133 -14.887138 317.515133 -32.430917 C 317.515133 -49.974696 331.695597 -64.15516 349.239377 -64.15516 Z M 349.239377 -64.15516 " transform="matrix(0.0429729,0,0,-0.0429729,0,9.239163)"/>
<path style="fill:none;stroke-width:3;stroke-linecap:round;stroke-linejoin:round;stroke:rgb(12.941177%,12.941177%,12.941177%);stroke-opacity:1;stroke-miterlimit:4;" d="M 158.712116 -64.15516 C 176.255896 -64.15516 190.52726 -49.974696 190.52726 -32.430917 C 190.52726 -14.887138 176.255896 -0.706674 158.712116 -0.706674 C 141.259238 -0.706674 126.987873 -14.887138 126.987873 -32.430917 C 126.987873 -49.974696 141.259238 -64.15516 158.712116 -64.15516 Z M 158.712116 -64.15516 " transform="matrix(0.0429729,0,0,-0.0429729,0,9.239163)"/>
</g>
</svg>
